images/globe.svg

<svg width="88" height="86" viewBox="0 0 88 86" fill="none" xmlns="http://www.w3.org/2000/svg">
<path fill-rule="evenodd" clip-rule="evenodd" d="M45.4238 85.2815C-16.3662 85.2815 -13.5762 0.135254 44.4238 0.135254C102.224 0.135254 101.884 85.2815 45.4238 85.2815ZM44.3638 5.85411C41.5729 5.84907 38.7875 6.09444 36.0438 6.58704L37.1038 12.4409L24.4038 21.1204L13.2538 20.455C12.156 21.9371 11.1765 23.4975 10.3238 25.1227L12.6638 46.2332L19.5438 54.7585L12.4838 64.4024C18.7738 73.2844 29.6138 79.5626 45.2138 79.5626C67.6738 79.5626 79.8638 63.9781 81.6338 47.1494L76.3638 42.53L68.6338 39.6946L67.3738 41.5366L70.3738 44.5745L72.6938 44.912L73.6938 48.1524L66.3938 51.711L61.3938 43.3111L59.6638 47.0915L63.4338 55.0864L68.0638 56.3883L60.6038 60.2459L50.8838 73.6895L42.6238 74.3163L40.8138 66.6012L42.1838 55.231L32.7138 52.8007L29.5938 45.5871L31.0838 38.6435L40.0838 35.0848L48.5938 39.7814L53.0838 38.3638L59.7738 40.1093L61.2938 31.8831L52.6838 29.1345L52.5838 34.4966L47.1138 34.2555L46.6438 28.5848L39.8838 30.0218L40.3938 25.0359L37.5138 21.8148L41.8938 17.9572L49.0138 21.8148L51.2438 17.2532L56.8838 14.9387L60.6438 16.5396L64.4638 15.797L66.1138 11.9394C60.3838 8.13972 53.1538 5.85411 44.3638 5.85411Z" fill="url(#paint0_linear_309_1252)"/>
<defs>
<linearGradient id="paint0_linear_309_1252" x1="31.9813" y1="93.6841" x2="119.916" y2="48.5948" gradientUnits="userSpaceOnUse">
<stop stop-color="white"/>
<stop offset="1" stop-color="#AED3FF"/>
</linearGradient>
</defs>
</svg>

<svg xmlns="http://www.w3.org/2000/svg" width="88" height="86" fill="none"><path fill="url(#a)" fill-rule="evenodd" d="M45.424 85.281c-61.79 0-59-85.146-1-85.146 57.8 0 57.46 85.146 1 85.146Zm-1.06-79.427c-2.791-.005-5.576.24-8.32.733l1.06 5.854-12.7 8.68-11.15-.666a35.743 35.743 0 0 0-2.93 4.668l2.34 21.11 6.88 8.526-7.06 9.643c6.29 8.882 17.13 15.16 32.73 15.16 22.46 0 34.65-15.584 36.42-32.413l-5.27-4.619-7.73-2.835-1.26 1.842 3 3.038 2.32.337 1 3.24-7.3 3.559-5-8.4-1.73 3.78 3.77 7.995 4.63 1.302-7.46 3.858-9.72 13.443-8.26.627-1.81-7.715 1.37-11.37-9.47-2.43-3.12-7.214 1.49-6.944 9-3.558 8.51 4.696 4.49-1.417 6.69 1.745 1.52-8.226-8.61-2.748-.1 5.362-5.47-.242-.47-5.67-6.76 1.437.51-4.986-2.88-3.221 4.38-3.858 7.12 3.858 2.23-4.562 5.64-2.314 3.76 1.6 3.82-.742 1.65-3.858c-5.73-3.8-12.96-6.085-21.75-6.085Z" clip-rule="evenodd"/><defs><linearGradient id="a" x1="31.981" x2="119.916" y1="93.684" y2="48.595" gradientUnits="userSpaceOnUse"><stop stop-color="#fff"/><stop offset="1" stop-color="#AED3FF"/></linearGradient></defs></svg>
